X:1
T:Thou Art My Way
T:Thou Art My Way
T:Carl Harold Lowden
T:Hattie M. Bird, 1914
T:Public Domain Courtesy of the Cyber Hymnal™
T:Public Domain Courtesy of the Cyber Hymnal™
C:Carl Harold Lowden
Z:Public Domain
Z:Courtesy of the Cyber Hymnal™
%%score ( 1 2 ) ( 3 4 )
L:1/8
Q:1/4=80
M:4/4
K:C
V:1 treble 
V:2 treble 
V:3 bass 
V:4 bass 
V:1
 [G,CE][E,G,C][G,CE] | G3 ([CE] [CE])[CEG][CFA][CFA][CGB][FAc] | %2
w: 1.~I can- not|see, I * do not know the way,|
w: 2.~What tho’ the|sun- shine * on my path falls not,|
w: 3.~Hold- ing Thy|hand, for * me once wound- ed sore,|
w: 4.~O, Je- sus,|Mas- ter, * Friend, when Thou art near,|
 G4- ([=CE][CE][CE][CEG])[B,DE^G][^CEA][A,CE] | F3 ([A,D] [A,D])[CFA][B,DFG][G,B,D][G,B,E][G,B,F] | %4
w: * But * * * hav- ing Thee,|* no * o- ther guide I need;|
w: * If * * * but Thy lov-|* ing * smile be not with- drawn;|
w: * I’m * * * not a- lone,|* tho’ * earth- ly friends are gone;|
w: * Sweet * * * peace I have,|* and * joy be- yond com- pare;|
 E4- ([G,C][G,C][G,C][G,CE])[G,CE][E,G,C][G,CE] | G3 ([CE] [CE])[EAc][^DFB][B,DFA][B,DG][B,D^F] | %6
w: * The * * * dark- est night|* shall * be as safe as day,|
w: * The * * * clouds that dark-|* en * now my earth- ly lot,|
w: * And * * * should I stum-|* ble * ere the jour- ney’s o’er,|
w: * Where * * * Thou dost lead,|* I’ll * go with- out a fear,|
 G4- ([B,E][B,E][B,E][B,EG])[A,^CG][A,C^F][A,CG] | %7
w: * And * * * ston- y paths|
w: * Will * * * on- ly make|
w: * Thou * * * wilt not let|
w: * And * * * in Thy strength|
 B3 ([D=G] [DG])[DGB][D^Fc][CDFA][B,D^E^G][CDFA] | d4- ([FB][FB][FA][FGd]) ||"^Refrain" GGG | %10
w: * to * sweet- est shel- ter lead.|||
w: * more * bright the heav’n- ly dawn.|* Thou * * *|* art my|
w: * me * go, for Thou art strong!|||
w: * the * heav- iest cross will bear.|||
 [Ge]3 [Gd] [Gc][EG][^D^F][EG] | [FA]4- [FA][FA][GA][GA] | [Af]3 [Ae] [Ad]A[Ad][Ac] | %13
w: |||
w: way, dear Lord, Thou art my|way, * The dark- est|night, with Thee is bright as|
w: |||
w: |||
 [GB]4- [GB]GGG | [Ge]3 [Gc] [Gc][Gc][Gd][Ge] | [Ff]4- [Ff][Ac][GB][FA] | [EG] z4 [Ge] [Fd]>[Ec] | %17
w: ||||
w: day; * I’ll trust in|Thee, con- tent if I can|say * Thou art my|way, Thou art my|
w: ||||
w: ||||
 [Ec]4- [Ec] |] %18
w: |
w: way. *|
w: |
w: |
V:2
 x3 | [CE] x9 | [^CE] x10 | [A,D] x9 | [G,C] x10 | [CE] x9 | [B,E] x10 | [D^G] x9 | [FGB] x7 || %9
 GGG | x8 | x8 | x5 A x2 | x5 GGG | x8 | x8 | x8 | x5 |] %18
V:3
 E,C,E, | G,3 G, A,A,B,C x2 | G,4- G,^G,A,E, x3 | F,3 A, G,D,E,F, x2 | E,4- E,E,C,E, x3 | %5
w: ~ ~ ~|~ ~ ~ ~ ~ ~|~ * ~ ~ ~|~ ~ ~ ~ ~ ~|~ * ~ ~ ~|
 G,3 C B,A,G,^F, x2 | G,4- G,G,^F,G, x3 | B,3 B, CA,^G,A, x2 | D4 [B,D] x3 || G,G,G, | %10
w: ~ ~ ~ ~ ~ ~|~ * ~ ~ ~|~ ~ ~ ~ ~ ~|~ ~|* ~ ~|
 [C,C]3 [D,B,] [E,C][C,C][C,C][C,C] | [F,C]4 [F,C][F,C][E,^C][E,C] | %12
w: ~ ~ ~ ~ ~ ~|~ ~ ~ ~ ~|
 [D,D]3 [E,^C] [F,D][F,D][^F,D][D,D] | [G,D]4- [G,D]G,G,G, | [C,C]3 [CE] [CE][CE][B,D][_B,_C] | %15
w: ~ ~ ~ ~ ~ ~|~ * ~ ~ ~|~ ~ ~ ~ ~ Thou|
 [A,C]4- [A,C] z3 | z G,E,C, [G,,G,][G,C] [G,B,]>[C,C] | [C,G,]4- [C,G,] |] %18
w: art *|my way * * * * *||
V:4
 x3 | x10 | x11 | x10 | x11 | x10 | x11 | x10 | D D D C x4 || G,G,G, | x8 | x8 | x8 | x5 G,G,G, | %14
 x8 | x8 | x G,E,C, x4 | x5 |] %18

